public/icons/Java-Dark.svg

<svg xmlns="http://www.w3.org/2000/svg" width="256" height="256" fill="none" viewBox="0 0 256 256"><rect width="256" height="256" fill="#242938" rx="60"/><path fill="#fff" d="M101.634 182.619C101.634 182.619 93.9548 187.293 106.979 188.63C122.707 190.634 131.023 190.299 148.386 186.962C148.386 186.962 153.06 189.971 159.406 192.306C120.331 209.002 70.9089 191.304 101.634 182.619ZM96.6252 160.914C96.6252 160.914 88.2753 167.26 101.299 168.593C118.327 170.262 131.69 170.597 154.732 165.926C154.732 165.926 157.741 169.267 162.747 170.936C115.664 184.961 62.8975 172.269 96.6252 160.917V160.914ZM188.795 198.984C188.795 198.984 194.471 203.658 182.449 207.334C160.073 214.012 88.6104 216.019 68.5735 207.334C61.564 204.325 74.9197 199.982 79.2587 199.319C83.6012 198.317 85.9366 198.317 85.9366 198.317C78.2569 192.973 34.8424 209.337 63.8959 214.046C143.709 227.073 209.499 208.37 188.792 199.018L188.795 198.984ZM105.307 138.203C105.307 138.203 68.9052 146.888 92.2793 149.89C102.298 151.223 122 150.892 140.368 149.555C155.396 148.221 170.458 145.548 170.458 145.548C170.458 145.548 165.113 147.886 161.441 150.222C124.342 159.915 53.2107 155.573 73.5827 145.554C90.9526 137.204 105.307 138.203 105.307 138.203V138.203ZM170.423 174.604C207.83 155.234 190.46 136.534 178.438 138.873C175.429 139.54 174.096 140.207 174.096 140.207C174.096 140.207 175.097 138.203 177.436 137.54C201.145 129.19 219.849 162.586 169.757 175.61C169.757 175.61 170.092 175.275 170.423 174.608V174.604ZM108.979 227.364C145.046 229.703 200.147 226.03 201.484 208.995C201.484 208.995 198.817 215.673 171.764 220.683C141.042 226.359 102.968 225.692 80.5957 222.016C80.5957 222.016 85.2698 226.023 108.982 227.36L108.979 227.364Z"/><path fill="#F58219" d="M147.685 28C147.685 28 168.389 49.0388 127.983 80.7594C95.5891 106.472 120.632 121.168 127.983 137.861C108.948 120.833 95.2609 105.802 104.606 91.7762C118.331 71.0828 156.062 61.0644 147.685 28ZM137 123.842C146.683 134.862 134.333 144.881 134.333 144.881C134.333 144.881 159.044 132.195 147.692 116.494C137.338 101.466 129.324 94.1184 172.738 69.0689C172.738 69.0689 104.278 86.0968 137.007 123.835L137 123.842Z"/></svg>

<svg xmlns="http://www.w3.org/2000/svg" width="256" height="256" fill="none"><rect width="256" height="256" fill="#242938" rx="60"/><path fill="#fff" d="M101.634 182.619s-7.68 4.674 5.345 6.011c15.728 2.004 24.044 1.669 41.407-1.668 0 0 4.674 3.009 11.02 5.344-39.075 16.696-88.497-1.002-57.772-9.687m-5.009-21.705s-8.35 6.346 4.674 7.679c17.028 1.669 30.391 2.004 53.433-2.667 0 0 3.009 3.341 8.015 5.01-47.083 14.025-99.85 1.333-66.122-10.019zm92.17 38.07s5.676 4.674-6.346 8.35c-22.376 6.678-93.839 8.685-113.876 0-7.009-3.009 6.347-7.352 10.686-8.015 4.342-1.002 6.678-1.002 6.678-1.002-7.68-5.344-51.095 11.02-22.041 15.729 79.813 13.027 145.603-5.676 124.896-15.028zm-83.488-60.781s-36.402 8.685-13.028 11.687c10.019 1.333 29.721 1.002 48.089-.335 15.028-1.334 30.09-4.007 30.09-4.007s-5.345 2.338-9.017 4.674c-37.099 9.693-108.23 5.351-87.858-4.668 17.37-8.35 31.724-7.351 31.724-7.351m65.116 36.401c37.407-19.37 20.037-38.07 8.015-35.731-3.009.667-4.342 1.334-4.342 1.334s1.001-2.004 3.34-2.667c23.709-8.35 42.413 25.046-7.679 38.07 0 0 .335-.335.666-1.002zm-61.444 52.76c36.067 2.339 91.168-1.334 92.505-18.369 0 0-2.667 6.678-29.72 11.688-30.722 5.676-68.796 5.009-91.168 1.333 0 0 4.674 4.007 28.386 5.344z"/><path fill="#F58219" d="M147.685 28s20.704 21.039-19.702 52.76c-32.394 25.712-7.351 40.408 0 57.101-19.035-17.028-32.722-32.059-23.377-46.085C118.331 71.083 156.062 61.064 147.685 28M137 123.842c9.683 11.02-2.667 21.039-2.667 21.039s24.711-12.686 13.359-28.387c-10.354-15.028-18.368-22.376 25.046-47.425 0 0-68.46 17.028-35.731 54.766z"/></svg>
